public/telegram.svg

<svg xmlns="http://www.w3.org/2000/svg"  viewBox="0 0 50 50" width="50px" height="50px"><path d="M 25 2 C 12.309288 2 2 12.309297 2 25 C 2 37.690703 12.309288 48 25 48 C 37.690712 48 48 37.690703 48 25 C 48 12.309297 37.690712 2 25 2 z M 25 4 C 36.609833 4 46 13.390175 46 25 C 46 36.609825 36.609833 46 25 46 C 13.390167 46 4 36.609825 4 25 C 4 13.390175 13.390167 4 25 4 z M 34.087891 14.035156 C 33.403891 14.035156 32.635328 14.193578 31.736328 14.517578 C 30.340328 15.020578 13.920734 21.992156 12.052734 22.785156 C 10.984734 23.239156 8.9960938 24.083656 8.9960938 26.097656 C 8.9960938 27.432656 9.7783594 28.3875 11.318359 28.9375 C 12.146359 29.2325 14.112906 29.828578 15.253906 30.142578 C 15.737906 30.275578 16.25225 30.34375 16.78125 30.34375 C 17.81625 30.34375 18.857828 30.085859 19.673828 29.630859 C 19.666828 29.798859 19.671406 29.968672 19.691406 30.138672 C 19.814406 31.188672 20.461875 32.17625 21.421875 32.78125 C 22.049875 33.17725 27.179312 36.614156 27.945312 37.160156 C 29.021313 37.929156 30.210813 38.335938 31.382812 38.335938 C 33.622813 38.335938 34.374328 36.023109 34.736328 34.912109 C 35.261328 33.299109 37.227219 20.182141 37.449219 17.869141 C 37.600219 16.284141 36.939641 14.978953 35.681641 14.376953 C 35.210641 14.149953 34.672891 14.035156 34.087891 14.035156 z M 34.087891 16.035156 C 34.362891 16.035156 34.608406 16.080641 34.816406 16.181641 C 35.289406 16.408641 35.530031 16.914688 35.457031 17.679688 C 35.215031 20.202687 33.253938 33.008969 32.835938 34.292969 C 32.477938 35.390969 32.100813 36.335938 31.382812 36.335938 C 30.664813 36.335938 29.880422 36.08425 29.107422 35.53125 C 28.334422 34.97925 23.201281 31.536891 22.488281 31.087891 C 21.863281 30.693891 21.201813 29.711719 22.132812 28.761719 C 22.899812 27.979719 28.717844 22.332938 29.214844 21.835938 C 29.584844 21.464938 29.411828 21.017578 29.048828 21.017578 C 28.923828 21.017578 28.774141 21.070266 28.619141 21.197266 C 28.011141 21.694266 19.534781 27.366266 18.800781 27.822266 C 18.314781 28.124266 17.56225 28.341797 16.78125 28.341797 C 16.44825 28.341797 16.111109 28.301891 15.787109 28.212891 C 14.659109 27.901891 12.750187 27.322734 11.992188 27.052734 C 11.263188 26.792734 10.998047 26.543656 10.998047 26.097656 C 10.998047 25.463656 11.892938 25.026 12.835938 24.625 C 13.831938 24.202 31.066062 16.883437 32.414062 16.398438 C 33.038062 16.172438 33.608891 16.035156 34.087891 16.035156 z"/></svg>

<svg xmlns="http://www.w3.org/2000/svg" width="50" height="50" viewBox="0 0 50 50"><path d="M25 2C12.31 2 2 12.31 2 25s10.31 23 23 23 23-10.31 23-23S37.69 2 25 2m0 2c11.61 0 21 9.39 21 21s-9.39 21-21 21S4 36.61 4 25 13.39 4 25 4m9.088 10.035c-.684 0-1.453.159-2.352.483-1.396.503-17.815 7.474-19.683 8.267-1.068.454-3.057 1.299-3.057 3.313 0 1.335.782 2.29 2.322 2.84.828.295 2.795.89 3.936 1.205.484.133.998.2 1.527.2 1.035 0 2.077-.257 2.893-.712q-.012.253.017.508c.123 1.05.77 2.037 1.73 2.642.629.396 5.758 3.833 6.524 4.38 1.076.768 2.266 1.175 3.438 1.175 2.24 0 2.991-2.313 3.353-3.424.525-1.613 2.491-14.73 2.713-17.043.151-1.585-.51-2.89-1.767-3.492a3.65 3.65 0 0 0-1.594-.342m0 2c.275 0 .52.046.728.147.473.227.714.733.641 1.498-.242 2.523-2.203 15.329-2.621 16.613-.358 1.098-.735 2.043-1.453 2.043s-1.503-.252-2.276-.805c-.773-.552-5.906-3.994-6.619-4.443-.625-.394-1.286-1.376-.355-2.326.767-.782 6.585-6.43 7.082-6.926.37-.371.197-.818-.166-.818-.125 0-.275.052-.43.18-.608.496-9.084 6.168-9.818 6.624-.486.302-1.239.52-2.02.52-.333 0-.67-.04-.994-.13-1.128-.31-3.037-.89-3.795-1.16-.729-.26-.994-.508-.994-.954 0-.634.895-1.072 1.838-1.473.996-.423 18.23-7.742 19.578-8.227.624-.226 1.195-.363 1.674-.363"/></svg>
